X:1
T:Loeul donne au cueur
T:Loeul donne au cueur
T:Pierre de Manchicourt
C:Pierre de Manchicourt
%%score [ 1 2 3 4 ]
L:1/8
Q:1/4=120
M:2/2
K:C
V:1 treble nm="Superius" snm="S"
V:2 treble nm="Altus" snm="A"
V:3 treble-8 nm="Tenor" snm="T"
V:4 bass nm="Bassus" snm="B"
V:1
 G4 B2 c2 | d2 c2 f2 e2 | d2 c2 d2 e2- | ed d4 c2 | d4 z2 A2 | A2 B2 c2 d2 | c2 B3 A A2- | %7
w: L'oeil don- ne'au|cueur, par son as-|pect, a- dres- *||se, le|cueur sans l'oeil riens|ne por- * roit|
w: Doncq, si l'oeil|faict que le cueur|bien s'a- dres- *||se, con-|ten- te- ment vient|tous les- * deulx|
 A2 G2 A3 B | A2 G4 F2 |1 G4 z4 :|2 G8- || G4 z2 G2 | G2 G2 d4- | d4 z2 d2 | d2 A2 c2 d2 | %15
w: _ choy- * *||sir|sir,|_ mais|le cueur a|_ trop|plus grand le plai-|
w: _ say- * *||sir,||||||
 AB cd e2 d2 | Bc dB c4 | B2 d2 e2 f2 | d2 B2 B2 c2 | B2 A2 c2 d2- | dc f3 e d2- |"^#" d2 c2 d4 |: %22
w: sir _ _ _ _ que|l'oeil _ _ _ _|et ne scau- roit,|et ne scau- roit|aul- tre ment es-||* * tre,|
w: |||||||
 z2 G2 GA Bc | d2 e2 f4 | e2 c2 c2 B2 | A2 B3 A A2- |"^#" A2 G2 A2 z2 | A2 F2 D2 d2- | %28
w: car le _ _ _|_ _ cueur|est le siè- ge|du de- * *|* * sir,|du- quel les yeulx|
w: ||||||
 dc BA G2 G2 | A2 c3 B B2- | BA A4 G2- |1"^#" G2 F2 G4 :|2"^#" G2 F2 G4- || G8 |] %34
w: _ _ _ _ _ ne|font que _ la-|* fe- nes- *|* * tre,|(nes)- * tre.|_|
w: ||||||
V:2
 D4 G4- | G2 G2 F2 A2 | A2 A2 F2 A2 | B2 G2 A3 G | F2 ED E2 E2 | F3 G A2 F2 | A2 GF E2 F2 | %7
w: L'oeil don-|* ne'au cueur, par|son as- pect, a-|dres- * * *|* * * se, le|cueur sans l'oeil riens|ne por- * * roit|
w: Doncq, si|_ l'oeil faict que|le cueur bien s'a-|dres- * * *|* * * se, con-|ten- te- ment vient|tous les _ _ deulx|
 E4 C2 F2- | F2 E2 D4 |1 B,4 z4 :|2 z2 D2 D2 D2 || E2 z C C2 G,A, | B,CDE F2 G2 | DEFG A2 G2- | %14
w: choy- * *|* * sir,|_|mais le cueur|a trop plus grand _|_ _ _ _ _ le|plai- * * * * sir|
w: say- * *|* * sir,|_|||||
 G2 F2 E2 DE | FG A2 G2 F2 | D2 G4 F2 | G4 z4 | z2 G2 G2 F2 | G2 A2 A2 G2 | A6 B2 | A4 F2 D2 |: %22
w: _ que que l'oeil _|_ _ _ _ _|||et ne scau-|roit aul- tre- ment|es- *|* tre, car|
w: ||||||||
 D2 E4 DC | B,2 C4 B,2 | C2 G2 F2 D2 | F2 G4 F2 | E2 E4 C2 | A,2 D2 z2 D2 | D2 D2 E4- | E2 A4 G2- | %30
w: le cueur _ _|_ _ _|est le siè- ge|du de- *|sir, du- quel|les yeulx ne-|sont que la|_ fe- *|
w: ||||||||
 GF F2 E2 C2 |1 D4 z2 D2 :|2 D8- || D8 |] %34
w: * * nes- * *|tre, car|tre|_|
w: ||||
V:3
 z4 G4 | B2 c2 d2 c2 | f2 e2 d2 c2 | d3 e f2 e2- | ed d4 c2 | d4 z2 A2 | A2 B2 c2 d2 | %7
w: L'oeil|don- ne'au cueur, par|son as- pect a-|dres- * * *||se, le|cueur sans l'oeil ne|
w: Doncq,|si l'oeil faict que|le cueur bien s'a-|dres- * * *||se, con-|ten te- ment vient|
 c2 B2 A2 d2 | cB AG A4 |1 G4 z4 :|2 G2 B2 B2 B2 || c2 e2 e2 e2 | d2 d2 d2 G2 | B2 d2 c2 B2 | %14
w: por- roit choy- *||sir,|sir, mais le cueur|a,- mais le cueur|a trop plus grand|le- plai- sir que|
w: tous les deulx say-||sir,|||||
 A6 f2 | f2 f2 e2 f2 | g2 d4 c2 | d2 g2 g2 f2 | g2 d2 e2 c2 | d2 f2 e2 d2 | e2 d2 f2 g2 | %21
w: l'oeil, trop|plus grand le plai-|* sir que|l'oeil et ne scau-|roit, et ne scau-|roit aul- tre- ment|es- * * *|
w: |||||||
 e4 d2 B2- |: B2 B2 c2 B2- | B2 AG A2 F2 | G2 G2 A2 B2 | c2 d4 c2 | B4 A4 | z2 a4 f2 | d2 g3 fed | %29
w: * tre, car|_ le cueur est|_ _ _ _ _|* le siè- ge|du de- *|* sir,|du- quel|les yeulx _ _ _|
w: ||||||||
 c2 f2 e2 d2- | d2 c2 B2 G2 |1 A4 G2 B2 :|2 A4 G4- || G8 |] %34
w: _ ne sont que|_ la fe- nes-|* tre, car|(nes)- tre.|_|
w: |||||
V:4
 G,4 G,2 C,2 | G,2 E,2 D,2 A,2 | D,2 A,2 B,2 A,2 | G,2 B,2 A,4 | B,4 A,4 |"^#" D,4 z2 D,2 | %6
w: L'oeil don- ne'au|cueur, par son as-|pect, a- dres- *|||se, le|
w: Doncq, si l'oeil|faict que le cueur|bien s'a- dres- *|||se, con-|
 F,2 G,2 A,2 D,2 | E,4 F,2 D,2 | F,2 G,2 D,4 |1 G,4 z4 :|2 G,8 || C,4 C,2 C,2 | G,4 z2 G,2 | %13
w: cueur sans l'oeil ne|por- roit choy-|* * sir|_|mais|le cueur a|trop, trop|
w: ten- te- ment vient|tous les deulx|say- * sir|_||||
 G,2 D,2 F,2 G,2 | D,4 z2 D2 | D2 A,2 C2 D2 | G,2 B,2 A,4 | G,2 B,2 C2 D2 | G,2 G,2 E,2 A,2 | %19
w: plus- grand le plai-|sir, trop|plus grand le plai-|sir que l'oeil|et ne scau- roit,|et ne scau- roit|
w: ||||||
 G,2 D2 C2 B,2 | A,2 D,2 D2 G,2 | A,4 D,2 G,2 |: G,2 E,2 C,2 G,2- | G,2 F,E, D,4 | %24
w: aul- tre- ment es-||* tre, car|le cueur est _|_ _ _ _|
w: |||||
 C,2 C,2 F,2 G,2 | A,2 G,2 A,4 | E,4 z2 A,2 | F,2 D,2 D3 C | B,A, G,2 C4 | A,2 F,2 G,3 F, | %30
w: * le siè- ge|du de- *|sir, du-|quel les yeulx _|_ _ ne sont|que la fe- *|
w: ||||||
 D,2 F,2 G,2 E,2 |1 D,4 z2 G,2 :|2 D,4 G,4- || G,8 |] %34
w: * nes- * *|tre, car|(nes)- tre.|_|
w: ||||

